X:182
T:John Clare’s H’pipe, aka. JC.181
R:.Hornpipe
S:John Clare,Poet,Helpstone (1793-1864)
N:Bar six should probably be omitted. CGP.
N:No TS given: 2/4 added.
O:England
A:Northamptonshire
Z:vmp.P. Headford
M:C|
L:1/8
Q:2/4=90
K:G
” Key D in MS”\
(d3c e)dcB|(dgfg) edcB|AGBG AGBG|DGBd cBAG|!
d3e edcB|(dgfg) edcB|”_Here,have this spare bar!”\
(dgfg) edcB|(gfgd) ecAF|G2G2G2z2:|!
|:d3e edcB|e2e2e2z2|c3d cAFA|dgfa agfe|!
dBdg eceg|fdfa gfgd|egfg ecAF|G2G2G2z2:|
W:untitled in MS.

